assets/icons/24px/stroke/display-zoom-24px.svg

<svg width="24" height="24" viewBox="0 0 24 24" fill="none" xmlns="http://www.w3.org/2000/svg">
<path fill-rule="evenodd" clip-rule="evenodd" d="M6.93417 10C6.95604 10 6.97799 10 7 10H9C9.02202 10 9.04397 10 9.06583 10C9.95232 9.99995 10.7161 9.99991 11.3278 10.0821C11.9833 10.1703 12.6117 10.369 13.1213 10.8787C13.631 11.3883 13.8297 12.0167 13.9179 12.6722C14.0001 13.2839 14.0001 14.0477 14 14.9342V17.0658C14.0001 17.9523 14.0001 18.7161 13.9179 19.3278C13.8297 19.9833 13.631 20.6117 13.1213 21.1213C12.6117 21.631 11.9833 21.8297 11.3278 21.9179C10.7161 22.0001 9.95232 22.0001 9.06584 22H6.93417C6.04769 22.0001 5.28387 22.0001 4.67221 21.9179C4.0167 21.8297 3.38835 21.631 2.87868 21.1213C2.36902 20.6117 2.17028 19.9833 2.08215 19.3278C1.99991 18.7161 1.99995 17.9523 2 17.0658C2 17.044 2 17.022 2 17V15C2 14.978 2 14.956 2 14.9342C1.99995 14.0477 1.99991 13.2839 2.08215 12.6722C2.17028 12.0167 2.36902 11.3883 2.87868 10.8787C3.38835 10.369 4.0167 10.1703 4.67221 10.0821C5.28387 9.99991 6.04769 9.99995 6.93417 10ZM4.93871 12.0643C4.50497 12.1226 4.36902 12.2168 4.2929 12.2929C4.21677 12.369 4.12263 12.505 4.06431 12.9387C4.00213 13.4012 4 14.0289 4 15V17C4 17.9711 4.00213 18.5988 4.06431 19.0613C4.12263 19.495 4.21677 19.631 4.2929 19.7071C4.36902 19.7832 4.50497 19.8774 4.93871 19.9357C5.40121 19.9979 6.02893 20 7 20H9C9.97108 20 10.5988 19.9979 11.0613 19.9357C11.495 19.8774 11.631 19.7832 11.7071 19.7071C11.7832 19.631 11.8774 19.495 11.9357 19.0613C11.9979 18.5988 12 17.9711 12 17V15C12 14.0289 11.9979 13.4012 11.9357 12.9387C11.8774 12.505 11.7832 12.369 11.7071 12.2929C11.631 12.2168 11.495 12.1226 11.0613 12.0643C10.5988 12.0021 9.97108 12 9 12H7C6.02893 12 5.40122 12.0021 4.93871 12.0643Z" fill="white"/>
<path fill-rule="evenodd" clip-rule="evenodd" d="M9.43417 2C9.45604 2 9.47799 2 9.5 2H10C10.5523 2 11 2.44772 11 3C11 3.55229 10.5523 4 10 4H9.5C8.52893 4 7.90122 4.00213 7.43871 4.06431C7.00497 4.12263 6.86902 4.21677 6.7929 4.2929C6.71677 4.36902 6.62263 4.50497 6.56431 4.93871C6.50213 5.40122 6.5 6.02893 6.5 7V7.5C6.5 8.05229 6.05229 8.5 5.5 8.5C4.94772 8.5 4.5 8.05229 4.5 7.5V7C4.5 6.97799 4.5 6.95604 4.5 6.93417C4.49995 6.04769 4.49991 5.28387 4.58215 4.67221C4.67028 4.0167 4.86902 3.38835 5.37868 2.87868C5.88835 2.36902 6.5167 2.17028 7.17221 2.08215C7.78387 1.99991 8.54769 1.99995 9.43417 2ZM19.0613 4.06431C18.5988 4.00213 17.9711 4 17 4H16.5C15.9477 4 15.5 3.55229 15.5 3C15.5 2.44772 15.9477 2 16.5 2L17.0658 2C17.9523 1.99995 18.7161 1.99991 19.3278 2.08215C19.9833 2.17028 20.6117 2.36902 21.1213 2.87868C21.631 3.38835 21.8297 4.0167 21.9179 4.67221C22.0001 5.28388 22.0001 6.0477 22 6.9342L22 7.5C22 8.05229 21.5523 8.5 21 8.5C20.4477 8.5 20 8.05229 20 7.5V7C20 6.02893 19.9979 5.40122 19.9357 4.93871C19.8774 4.50497 19.7832 4.36902 19.7071 4.2929C19.631 4.21677 19.495 4.12263 19.0613 4.06431ZM21 13C21.5523 13 22 13.4477 22 14L22 14.5658C22.0001 15.4523 22.0001 16.2161 21.9179 16.8278C21.8297 17.4833 21.631 18.1117 21.1213 18.6213C20.6117 19.131 19.9833 19.3297 19.3278 19.4179C18.7161 19.5001 17.9523 19.5001 17.0658 19.5L16.5 19.5C15.9477 19.5 15.5 19.0523 15.5 18.5C15.5 17.9477 15.9477 17.5 16.5 17.5H17C17.9711 17.5 18.5988 17.4979 19.0613 17.4357C19.495 17.3774 19.631 17.2832 19.7071 17.2071C19.7832 17.131 19.8774 16.995 19.9357 16.5613C19.9979 16.0988 20 15.4711 20 14.5V14C20 13.4477 20.4477 13 21 13Z" fill="white"/>
</svg>

<svg width="24" height="24" fill="none" xmlns="http://www.w3.org/2000/svg"><path fill-rule="evenodd" clip-rule="evenodd" d="M6.934 10H9.066c.886 0 1.65 0 2.262.082.655.088 1.284.287 1.793.797.51.51.709 1.138.797 1.793.082.612.082 1.376.082 2.262v2.132c0 .886 0 1.65-.082 2.262-.088.655-.287 1.284-.797 1.793-.51.51-1.138.709-1.793.797C10.716 22 9.952 22 9.066 22H6.934c-.886 0-1.65 0-2.262-.082-.655-.088-1.284-.287-1.793-.797-.51-.51-.709-1.138-.797-1.793C2 18.716 2 17.952 2 17.066V15v-.066c0-.886 0-1.65.082-2.262.088-.655.287-1.284.797-1.793.51-.51 1.138-.709 1.793-.797C5.284 10 6.048 10 6.934 10zM4.94 12.064c-.434.059-.57.153-.646.229-.076.076-.17.212-.229.646C4.002 13.4 4 14.029 4 15v2c0 .971.002 1.599.064 2.061.059.434.153.57.229.646.076.076.212.17.646.229C5.4 19.998 6.029 20 7 20h2c.971 0 1.599-.002 2.061-.064.434-.059.57-.153.646-.229.076-.076.17-.212.229-.646.062-.462.064-1.09.064-2.061v-2c0-.971-.002-1.599-.064-2.061-.059-.434-.153-.57-.229-.646-.076-.076-.212-.17-.646-.229C10.6 12.002 9.971 12 9 12H7c-.971 0-1.599.002-2.061.064zM9.434 2H10a1 1 0 1 1 0 2h-.5c-.971 0-1.599.002-2.061.064-.434.059-.57.153-.646.229-.076.076-.17.212-.229.646C6.502 5.4 6.5 6.029 6.5 7v.5a1 1 0 1 1-2 0V7v-.066c0-.886 0-1.65.082-2.262.088-.655.287-1.284.797-1.793.51-.51 1.138-.709 1.793-.797C7.784 2 8.548 2 9.434 2zm9.627 2.064C18.6 4.002 17.971 4 17 4h-.5a1 1 0 1 1 0-2h.566c.886 0 1.65 0 2.262.082.655.088 1.284.287 1.793.797.51.51.709 1.138.797 1.793C22 5.284 22 6.048 22 6.934V7.5a1 1 0 1 1-2 0V7c0-.971-.002-1.599-.064-2.061-.059-.434-.153-.57-.229-.646-.076-.076-.212-.17-.646-.229zM21 13a1 1 0 0 1 1 1v.566c0 .886 0 1.65-.082 2.262-.088.655-.287 1.284-.797 1.793-.51.51-1.138.709-1.793.797-.612.082-1.376.082-2.262.082H16.5a1 1 0 1 1 0-2h.5c.971 0 1.599-.002 2.061-.064.434-.059.57-.153.646-.229.076-.076.17-.212.229-.646.062-.462.064-1.09.064-2.061V14a1 1 0 0 1 1-1z" fill="#fff"/></svg>
